!!!OTL: Douzheng dizhuge
!!!ARE: Asia, China,ÿJiangsu Dongtai
!! III, 469
!!!SCT: C2033
!!!YEM: Copyright 1995, estate of Helmut Schaffrath.
**kern
*ICvox
*Ivox
*M2/4
*k[b-]
*F:
{8a
8a
8a
8dd
=1
2cc}
=2
{8a
8cc
16a
16g
8f
=3
2g}
=4
{8g
4g
8a
=5
4dd
4cc
=6
8a
8g
4cc
=7
8g
16a
16g
4f}
=8
{8ff
8dd
8dd
8a
=9
4cc
4r}
==
!!!AGN: Xiaodiao
!!!AMT: simple duple
!!!AIN: vox
!!!EED: Helmut Schaffrath
!!!EEV: 1.0
*-
